brandFactory_export/3.Masa/Dinero_Pagar_Cobro_Saldo_3Masa.svg

<?xml version="1.0" encoding="UTF-8"?>
<svg width="24px" height="24px" viewBox="0 0 24 24" version="1.1" xmlns="http://www.w3.org/2000/svg" xmlns:xlink="http://www.w3.org/1999/xlink">
    <title>3.Masa/Dinero_Pagar_Cobro_Saldo_3Masa</title>
    <g id="Symbols" stroke="none" stroke-width="1" fill="none" fill-rule="evenodd">
        <g id="3.Masa/Dinero_Pagar_Cobro_Saldo_3Masa" fill="#5CB615" fill-rule="nonzero">
            <path d="M11.8151261,23.6302521 C8.06722689,23.6302521 5.14621849,22.6487395 3.1394958,20.7159664 C1.05546218,18.7058824 0,15.7109244 0,11.8151261 C0,7.91932773 1.05546218,4.92436975 3.1394958,2.91428571 C5.14621849,0.981512605 8.06722689,0 11.8151261,0 C15.5630252,0 18.4840336,0.981512605 20.4907563,2.91428571 C22.5747899,4.9210084 23.6302521,7.91596639 23.6302521,11.8151261 C23.6302521,15.7142857 22.5747899,18.7058824 20.4907563,20.7159664 C18.4840336,22.6487395 15.5630252,23.6302521 11.8151261,23.6302521 Z M15.1764706,12.0806723 C14.5680672,11.5092437 13.6605042,11.1394958 12.487395,10.9815126 L12.487395,7.14957983 C13.0386555,7.23697479 13.5764706,7.42857143 14.1344538,7.73445378 L14.1445378,7.74117647 C14.2722689,7.80504202 14.4470588,7.8789916 14.6352941,7.8789916 C15.0756303,7.8789916 15.4319328,7.52268908 15.4319328,7.08235294 C15.4319328,6.77983193 15.2605042,6.51092437 14.9478992,6.31596639 C14.2655462,5.89243697 13.4084034,5.62352941 12.4840336,5.52941176 L12.4840336,4.62521008 C12.4840336,4.25546218 12.1815126,3.95294118 11.8117647,3.95294118 C11.4420168,3.95294118 11.1394958,4.25546218 11.1394958,4.62521008 L11.1394958,5.52941176 C9.08907563,5.75798319 7.79831933,7.1092437 7.79831933,9.09579832 C7.79831933,10.3966387 8.38655462,12.0134454 11.1394958,12.4672269 L11.1394958,16.4941176 C10.3865546,16.3798319 9.63361345,16.0739496 8.88403361,15.5731092 C8.72268908,15.4621849 8.53445378,15.4016807 8.3394958,15.3983193 C7.88235294,15.3983193 7.50588235,15.7647059 7.50588235,16.2151261 C7.50588235,16.5210084 7.63697479,16.7630252 7.90588235,16.9512605 C8.84033613,17.6067227 9.99327731,18.0168067 11.1394958,18.1176471 L11.1394958,19.0117647 C11.1394958,19.3815126 11.4420168,19.6840336 11.8117647,19.6840336 C12.1815126,19.6840336 12.4840336,19.3815126 12.4840336,19.0117647 L12.4840336,18.097479 C13.4957983,17.9831933 14.3428571,17.6470588 14.9579832,17.112605 C15.7142857,16.4571429 16.1143123,15.5327731 16.1143123,14.4369748 C16.1176471,13.4588235 15.8016807,12.6655462 15.1764706,12.0806723 L15.1764706,12.0806723 Z M9.94957983,10.2218487 C9.60672269,9.92605042 9.4487395,9.54285714 9.4487395,9.01176471 C9.4487395,8.44705882 9.64705882,7.97310924 10.0201681,7.64033613 C10.3058824,7.38487395 10.6857143,7.21680672 11.1428571,7.1394958 L11.1428571,10.7663866 C10.6218487,10.6386555 10.2218487,10.4571429 9.94957983,10.2218487 Z M12.487395,12.6588235 C14.2218487,12.9983193 14.4705882,13.7747899 14.4705882,14.5008403 C14.4705882,15.5731092 13.7277311,16.2991597 12.487395,16.4907563 L12.487395,12.6588235 Z" id="Dinero_Pagar_Cobro_Saldo_3Masa"></path>
        </g>
    </g>
</svg>

<svg width="24" height="24" viewBox="0 0 24 24" xmlns="http://www.w3.org/2000/svg"><path d="M11.815 23.63c-3.748 0-6.669-.981-8.676-2.914C1.055 18.706 0 15.711 0 11.816c0-3.897 1.055-6.892 3.14-8.902C5.145.982 8.066 0 11.814 0c3.748 0 6.669.982 8.676 2.914 2.084 2.007 3.14 5.002 3.14 8.901 0 3.9-1.056 6.89-3.14 8.901-2.007 1.933-4.928 2.914-8.676 2.914zm3.361-11.55c-.608-.57-1.515-.94-2.689-1.098V7.15c.552.087 1.09.279 1.647.584l.01.007c.128.064.303.138.491.138.44 0 .797-.356.797-.797 0-.302-.171-.571-.484-.766-.682-.424-1.54-.692-2.464-.787v-.904a.674.674 0 00-.672-.672.674.674 0 00-.673.672v.904C9.09 5.758 7.8 7.11 7.8 9.096c0 1.3.588 2.917 3.34 3.371v4.027c-.752-.114-1.505-.42-2.255-.92a.989.989 0 00-.545-.176.828.828 0 00-.833.817c0 .306.131.548.4.736a6.747 6.747 0 003.233 1.167v.894c0 .37.303.672.673.672.37 0 .672-.302.672-.672v-.915c1.012-.114 1.859-.45 2.474-.984.756-.656 1.156-1.58 1.156-2.676.004-.978-.312-1.771-.938-2.356zM9.95 10.223c-.343-.296-.501-.68-.501-1.21 0-.565.198-1.039.571-1.372.286-.255.666-.423 1.123-.5v3.626c-.521-.127-.921-.309-1.193-.544zm2.537 2.437c1.735.34 1.984 1.116 1.984 1.842 0 1.072-.743 1.798-1.984 1.99v-3.832z" fill="#5CB615" fill-rule="nonzero"/></svg>
